X:1
T:Title
%%score { ( 1 3 ) | ( 2 4 ) }
L:1/8
M:4/4
K:D
V:1 treble nm="Grand Piano"
V:3 treble 
V:2 bass 
V:4 bass 
V:1
 z4 z2[Q:1/4=100] F>E | D2 F2 [FA]2 [Fd]2 | d4 B2 B>B | [FA]2 F2 B2 A2 |[M:3/4] E6 | %5
[M:1/4] [CF]>[CE] |[M:4/4] D2 F2 [FA]2 [Fd]2 | [Gd]4 [DGB]2 [CGB]>[CGB] | %8
 [DFA]2 [DB]2 [DF]2[K:bass] [G,CE]2 |[M:3/4] [F,D]6 |[M:1/4][K:treble] A>d |[M:4/4] c6 z2 | d6 z2 | %13
 [Gc]2 [GB]2 [A,EG]2 [CGB]2 |[M:3/4] [DFA]6 |[M:1/4] B>c |[M:4/4] d6 z2 | B6 z2 | %18
 [DFA]2 [DB]2 [DF]2[K:bass] [G,CE]2 |[M:3/4] [F,D]6 |] %20
V:2
 z4 z2 [D,A,D]>[D,G,D] | [D,F,]2 [D,A,D]2 [D,D]2 [D,A,]2 | [G,B,G]4 [G,DG]2 [G,DG]>[G,DG] | %3
 [D,D]2 [D,A,D]2 [D,G,D]2 [F,A,D]2 |[M:3/4] [A,C]6 |[M:1/4] [A,,A,]>[A,,G,] | %6
[M:4/4] [D,F,]2 [D,A,D]2 [D,D]2 [D,A,]2 | [G,B,]4 G,2 E,>E, | F,2 G,2 A,2 A,,2 |[M:3/4] D,6 | %10
[M:1/4][K:treble] F>F |[M:4/4] G6 G>G | F6[K:bass] z2 | [E,A,]2 [C,A,]2 A,,2 A,,2 |[M:3/4] D,6 | %15
[M:1/4][K:treble] G>G |[M:4/4] F6[K:bass][K:treble] z2 | G6[K:bass] z2 | F,2 G,2 A,2 A,,2 | %19
[M:3/4] D,6 |] %20
V:3
 x8 | x8 | x8 | x8 |[M:3/4] x6 |[M:1/4] x2 |[M:4/4] x8 | x8 | x6[K:bass] x2 |[M:3/4] x6 | %10
[M:1/4][K:treble] x2 |[M:4/4] z2 A,>A, A,2 A>e | z2 A,>A, A,2 [Fd]>[Fd] | x8 |[M:3/4] x6 | %15
[M:1/4] x2 |[M:4/4] z2 A,>A, A,2 e>d | z2 D>D D2 [Gc]>[CGB] | x6[K:bass] x2 |[M:3/4] x6 |] %20
V:4
 x8 | x8 | x8 | x8 |[M:3/4] x6 |[M:1/4] x2 |[M:4/4] x8 | x8 | x8 |[M:3/4] x6 | %10
[M:1/4][K:treble] x2 |[M:4/4] x8 | z2[K:bass] D,>D, D,2 [D,A,]>[D,A,] | x8 |[M:3/4] x6 | %15
[M:1/4][K:treble] x2 |[M:4/4] z2[K:bass] D,>D, D,2[K:treble] G>G | z2 G,>G,[K:bass] G,2 [E,A,]>E, | %18
 x8 |[M:3/4] x6 |] %20

